!!!SOCIAL_FUNCTION:	songs with contest of physical strength
!!!PDT:	1939
!!!OTL: No_25_Song_Challenging_to_Contest_of_Strength_(a).krn
!!!LANG: Non-Tone
!!!LING_GROUP: Wakashan
!!!REG: Pacific Northwest
**kern
*staff1
=1-
*clefF4
*k[f#]
*M3/4
8.G\L
16G\Jk
16G\LK
8.G\J
16G\LL
16E\JJ
8r
=2
12G\L
12A\
12G\J
16G\LK
8.G\J
8G\
16r
16E\
=3
[2G\
8G\]
16r
16E\
=4
2G\
8E\
8r
=5
8.G\L
16G\Jk
16G\LL
16G\
16G\JJ
16r
16G\LL
16E\JJ
8r
=6
12G\L
12A\
12G\J
16G\LL
16G\
16G\JJ
16r
16G\LL
16A\
16G\JJ
32r
32Fn\
=7
2G\
8G\
16r
16E\
=8
2G\
4E\
==
*-
